static/logos/jitter-wordmark-color.svg

<svg width="100" height="30" viewBox="0 0 100 30" fill="none" xmlns="http://www.w3.org/2000/svg">
<g clip-path="url(#clip0_1_2270)">
<path d="M37.4664 8.78791V23.7879C37.4664 24.7538 37.0403 25.2178 35.7713 25.2178C35.5914 25.2178 35.4304 25.2084 35.2031 25.1894V28.6932C35.563 28.7311 35.8092 28.7216 36.0554 28.7311C39.7675 28.8447 42.0971 27.4811 42.0971 23.8826V8.78791H37.4664ZM39.777 7.09284C41.0933 7.09284 42.1539 6.0985 42.1539 4.87691C42.1539 3.65532 41.0933 2.67047 39.777 2.67047C38.4702 2.67047 37.4001 3.65532 37.4001 4.87691C37.4001 6.0985 38.4702 7.09284 39.777 7.09284ZM45.0445 23.3334H49.6752V8.78791H45.0445V23.3334ZM47.3646 7.09284C48.6809 7.09284 49.7415 6.0985 49.7415 4.87691C49.7415 3.65532 48.6809 2.67047 47.3646 2.67047C46.0578 2.67047 44.9877 3.65532 44.9877 4.87691C44.9877 6.0985 46.0578 7.09284 47.3646 7.09284ZM60.8329 8.78791H58.2098V5.30305H53.5791V8.78791H51.6567V12.197H53.5791V19.2708C53.5507 22.216 55.4635 23.6932 58.7306 23.5417C59.848 23.4849 60.6529 23.2576 61.098 23.125L60.3973 19.7822C60.1984 19.8296 59.7344 19.9243 59.384 19.9243C58.6359 19.9243 58.2098 19.6212 58.2098 18.7595V12.197H60.8329V8.78791ZM71.4059 8.78791H68.7826V5.30305H64.152V8.78791H62.2297V12.197H64.152V19.2708C64.1236 22.216 66.0365 23.6932 69.3033 23.5417C70.4213 23.4849 71.2259 23.2576 71.6713 23.125L70.9699 19.7822C70.7713 19.8296 70.3073 19.9243 69.9573 19.9243C69.2086 19.9243 68.7826 19.6212 68.7826 18.7595V12.197H71.4059V8.78791ZM80.4113 23.608C84.2279 23.608 86.7373 21.7614 87.2673 18.9016L83.0159 18.7784C82.6559 19.7444 81.7086 20.2652 80.4966 20.2652C78.7166 20.2652 77.6179 19.0815 77.6179 17.3012V17.178H87.3146V16.0228C87.3146 11.2311 84.3979 8.59851 80.2693 8.59851C75.8753 8.59851 73.0533 11.6099 73.0533 16.1174C73.0533 20.7766 75.8379 23.608 80.4113 23.608ZM77.6179 14.4887C77.6839 13.0398 78.8299 11.9413 80.3639 11.9413C81.8886 11.9413 82.9873 13.0019 83.0059 14.4887H77.6179ZM89.6799 23.3334H94.3106V15.4356C94.3106 13.7027 95.5419 12.5379 97.1986 12.5379C97.7479 12.5379 98.5719 12.6326 99.0173 12.7841V8.75951C98.6286 8.65538 98.1459 8.58904 97.7199 8.58904C96.1286 8.58904 94.8599 9.51711 94.3293 11.4394H94.1779V8.78791H89.6799V23.3334Z" fill="black"/>
<path d="M14.6667 29.3333C22.7669 29.3333 29.3333 22.7669 29.3333 14.6667C29.3333 6.56649 22.7669 0 14.6667 0C6.56649 0 0 6.56649 0 14.6667C0 22.7669 6.56649 29.3333 14.6667 29.3333Z" fill="black"/>
</g>
<defs>
<clipPath id="clip0_1_2270">
<rect width="100" height="29.3333" fill="white"/>
</clipPath>
</defs>
</svg>

<svg xmlns="http://www.w3.org/2000/svg" width="213.333" height="64" fill="none" viewBox="0 0 100 30"><g fill="#000" clip-path="url(#a)"><path d="M37.466 8.788v15c0 .966-.426 1.43-1.695 1.43-.18 0-.34-.01-.568-.029v3.504c.36.038.606.029.852.038 3.712.114 6.042-1.25 6.042-4.848V8.788h-4.63Zm2.311-1.695c1.316 0 2.377-.995 2.377-2.216 0-1.222-1.06-2.207-2.377-2.207-1.307 0-2.377.985-2.377 2.207 0 1.221 1.07 2.216 2.377 2.216Zm5.267 16.24h4.631V8.788h-4.63v14.545Zm2.32-16.24c1.317 0 2.378-.995 2.378-2.216 0-1.222-1.061-2.207-2.377-2.207-1.307 0-2.377.985-2.377 2.207 0 1.221 1.07 2.216 2.377 2.216Zm13.469 1.695H58.21V5.303h-4.63v3.485h-1.923v3.409h1.922v7.074c-.028 2.945 1.885 4.422 5.152 4.27a9.7 9.7 0 0 0 2.367-.416l-.7-3.343c-.2.048-.664.142-1.014.142-.748 0-1.174-.303-1.174-1.165v-6.562h2.623v-3.41Zm10.573 0h-2.623V5.303h-4.631v3.485H62.23v3.409h1.922v7.074c-.028 2.945 1.885 4.422 5.151 4.27a9.703 9.703 0 0 0 2.368-.416l-.701-3.343c-.199.048-.663.142-1.013.142-.748 0-1.174-.303-1.174-1.165v-6.562h2.623v-3.41Zm9.005 14.82c3.817 0 6.326-1.847 6.856-4.706l-4.251-.124c-.36.966-1.307 1.487-2.52 1.487-1.78 0-2.878-1.184-2.878-2.964v-.123h9.697v-1.155c0-4.792-2.917-7.424-7.046-7.424-4.394 0-7.216 3.01-7.216 7.518 0 4.66 2.785 7.491 7.358 7.491Zm-2.793-9.12c.066-1.448 1.212-2.547 2.746-2.547 1.525 0 2.623 1.06 2.642 2.548h-5.388Zm12.062 8.845h4.63v-7.897c0-1.733 1.232-2.898 2.889-2.898.549 0 1.373.095 1.818.246V8.76a5.3 5.3 0 0 0-1.297-.171c-1.591 0-2.86.928-3.39 2.85h-.152V8.788H89.68v14.545ZM14.667 29.333c8.1 0 14.666-6.566 14.666-14.666C29.333 6.567 22.767 0 14.667 0 6.567 0 0 6.566 0 14.667c0 8.1 6.566 14.666 14.667 14.666Z"/></g><defs><clipPath id="a"><path fill="#fff" d="M0 0h100v29.333H0z"/></clipPath></defs></svg>
